images_breeze_svg/cmd/sc_beforeobject.svg

<svg viewBox="0 0 16 16" xmlns="http://www.w3.org/2000/svg">
/&amp;gt;<path d="m2 2v1h12v-1zm5.5 2-.21875.21875-3.28125 3.1875.71875.71875 2.28125-2.21875v6.09375h1v-6.09375l2.28125 2.21875.71875-.71875-3.28125-3.1875zm-6.5 7v5h1 2v-1h-2v-3h2v-1h-2zm11 0v1h2v3h-2v1h2 1v-5h-1zm-8 2v1h8v-1z" fill="#4d4d4d"/></svg>

<?xml version="1.0" encoding="UTF-8" standalone="no"?>
<svg
   xmlns:dc="http://purl.org/dc/elements/1.1/"
   xmlns:cc="http://creativecommons.org/ns#"
   xmlns:rdf="http://www.w3.org/1999/02/22-rdf-syntax-ns#"
   xmlns:svg="http://www.w3.org/2000/svg"
   xmlns="http://www.w3.org/2000/svg"
   xmlns:sodipodi="http://sodipodi.sourceforge.net/DTD/sodipodi-0.dtd"
   xmlns:inkscape="http://www.inkscape.org/namespaces/inkscape"
   viewBox="0 0 16 16"
   version="1.1"
   id="svg4"
   sodipodi:docname="sc_beforeobject.svg"
   inkscape:version="0.92.4 (unknown)"
   inkscape:export-filename="/home/rizmut/Dokumen/Rizmut/Github/tmp/breeze/cmd/sc_beforeobject.png"
   inkscape:export-xdpi="96"
   inkscape:export-ydpi="96"><metadata
   id="metadata10">
  <rdf:RDF>
    <cc:Work
       rdf:about="">
      <dc:format>image/svg+xml</dc:format>
      <dc:type
         rdf:resource="http://purl.org/dc/dcmitype/StillImage" />
    </cc:Work>
  </rdf:RDF>
</metadata>
<defs
   id="defs8" />
<sodipodi:namedview
   pagecolor="#ffffff"
   bordercolor="#666666"
   borderopacity="1"
   objecttolerance="10"
   gridtolerance="10"
   guidetolerance="10"
   inkscape:pageopacity="0"
   inkscape:pageshadow="2"
   inkscape:window-width="1360"
   inkscape:window-height="714"
   id="namedview6"
   showgrid="true"
   inkscape:zoom="14.75"
   inkscape:cx="-1.8205348"
   inkscape:cy="7.4602489"
   inkscape:window-x="0"
   inkscape:window-y="28"
   inkscape:window-maximized="1"
   inkscape:current-layer="svg4">
  <inkscape:grid
     type="xygrid"
     id="grid817" />
</sodipodi:namedview>
/&gt;<path
   style="fill:#4d4d4d;stroke:none"
   d="M 2 2 L 2 3 L 14 3 L 14 2 L 2 2 z M 7.5 4 L 7.28125 4.21875 L 4 7.40625 L 4.71875 8.125 L 7 5.90625 L 7 12 L 8 12 L 8 5.90625 L 10.28125 8.125 L 11 7.40625 L 7.71875 4.21875 L 7.5 4 z M 1 11 L 1 16 L 2 16 L 4 16 L 4 15 L 2 15 L 2 12 L 4 12 L 4 11 L 2 11 L 1 11 z M 12 11 L 12 12 L 14 12 L 14 15 L 12 15 L 12 16 L 14 16 L 15 16 L 15 11 L 14 11 L 12 11 z M 4 13 L 4 14 L 12 14 L 12 13 L 4 13 z "
   id="path2" />
</svg>
